X:842
T:Red River Valley
R:March
C:James Kernigan, 1896
O:USA
M:2/2
L:1/4
S:Colin Hume's website,  colinhume.com  - chords can also be printed below the stave.
Q:1/2=112
%%MIDI ratio 3 1
K:G
| DG | "G"B2 B2 | "G"B2 "D7"A>B | "G"A G3- | G2 DG | "G"B2 GB | d2 cB | "D7"A4- | A2 dc |
"G"B2 BA | "G7"G2 AB | "C"d c3- | c2 EE | "D7"D2 FG | A2 BA | "G"G2-"C"G2- | "G"G2 |]

